src/img/channel/channel_14.svg

<svg fill="none" height="100" viewBox="0 0 81 100" width="81" xmlns="http://www.w3.org/2000/svg"><g fill="#fff"><path d="m.0258789 75.8469v-22.395c0-1.168 0-1.1715 1.1805111-1.1715 3.95901 0 7.89823-.0412 11.84641.0214 1.4632.0066 2.9217.1661 4.3514.4758 3.6261.8353 5.8143 3.3751 6.2336 7.0614.1184 1.0326.1785 2.071.18 3.1104.0084 8.9823.0036 17.9641-.0144 26.9452 0 1.921-.3419 3.7936-1.3209 5.4874-1.517 2.6257-3.995 3.7865-6.8599 3.901-4.8984.1949-9.80576.1287-14.707742.2074-.8493889.0126-.8835804-.4328-.8835804-1.0731.0107973-7.5253.0107973-15.0505 0-22.5757zm9.5988111.0448h-.0108v13.2034c0 2.6489.00001 2.6489 2.65071 2.3001 1.1482-.152 1.8194-.7333 1.9454-1.8655.1041-1.034.1497-2.073.1367-3.1121.0072-7.6707.0072-15.3432 0-23.0175 0-2.3019-.8296-3.1068-3.1438-3.1301h-.2753c-1.29931 0-1.30291 0-1.30291 1.252z"/><path d="m28.5577 75.9273c0-5.1154-.0126-10.2326.0108-15.3498-.0027-.9212.0835-1.8406.2574-2.7455.646-3.1747 2.6075-5.1869 5.8143-5.6341 3.9446-.5526 7.9468-.6081 11.8771.0358 3.4353.5616 5.4328 2.8922 5.8485 6.3281.0971.7971.1476 1.5991.1512 2.4021.0132 9.9351.0132 19.8713 0 29.8088-.004 1.0692-.113 2.1355-.3258 3.1837-.619 3.0531-2.4761 5.0349-5.5786 5.5446-3.9598.653-7.9999.665-11.9634.034-3.923-.6242-6.0339-3.3786-6.0717-7.4548-.0486-5.3837-.0108-10.7692-.0108-16.1547zm14.3965-.025h.009v-13.1999c0-2.5988-.2538-2.8475-2.8793-2.8081-1.4721.0215-2.0317.5366-2.0353 1.9853-.0144 9.3353-.0192 18.6706-.0144 28.0059 0 1.4309.5722 1.9675 2.0299 2.0122h.808c1.6196-.025 2.0803-.4811 2.0821-2.0837.0084-4.6361.0101-9.2733.0054-13.9117z"/><path d="m57.2534 75.8863c0-5.0564-.0432-10.1145.027-15.1709.0045-1.3932.2099-2.7786.61-4.1138.8224-2.6113 2.8433-4.1978 5.4797-4.3821 3.7394-.2629 7.5437-.372 11.2616.0143 3.833.3989 5.9385 3.1641 6.0969 7.2224.1205 3.0603.0287 6.1278.0521 9.1916 0 .5491-.2195.7262-.7468.7155-2.6021-.0143-5.2061-.0197-7.8082 0-.6533 0-.817-.2844-.8116-.8639.018-2.082.018-4.1645 0-6.2476 0-.7941.1187-1.8512-.8044-2.0784-.9898-.2432-2.1055-.1395-3.1295.0322-.3041.0519-.6244.8299-.6856 1.3075-.1116.8782-.036 1.7797-.036 2.6722 0 8.4493-.0042 16.8981-.0126 25.3462 0 .8085-.0953 1.7242.8188 2.0927 1.1085.4454 2.3214.5133 3.3598-.1502.3491-.2236.5399-.9158.5525-1.3987.0527-2.6782.0527-5.3557 0-8.0326-.0162-.8639.2573-1.1251 1.1193-1.1072 2.4528.0501 4.9056.0358 7.3601 0 .7199-.0089.997.1914.988.9533-.0396 3.2428.045 6.4873-.0432 9.7282-.0702 2.5899-.6658 5.0242-2.9567 6.6805-1.4864 1.0731-3.223 1.4791-4.9901 1.5131-2.9549.0573-5.9241.0555-8.8718-.152-4.0436-.2844-6.7033-3.1193-6.7663-7.1848-.0864-5.5322-.0216-11.0661-.0216-16.6z"/><path d="m48.3219 16.4747v14.6361c0 1.3379 0 1.3379 1.3029 1.3379.6874 0 1.3766.0232 2.064 0 .5399-.0215.7576.1789.7559.7154-.0144 2.231-.0144 4.462 0 6.693 0 .5598-.27.7154-.7793.7065-.808-.0179-1.6196.034-2.4222-.0143-.7198-.0447-.9357.2718-.9267.9408.0252 1.7546-.0198 3.511.0198 5.2656.0162.7405-.2466.982-.9862.9694-2.2134-.0375-4.4287-.0322-6.6421 0-.6641.009-.8998-.22-.889-.8782.0306-1.7242-.0252-3.452.0252-5.1744.0252-.8424-.234-1.1375-1.1139-1.1286-3.8889.0411-7.7795 0-11.6684.034-.8331 0-1.0797-.2504-1.0689-1.0732.045-2.5863 0-5.1762.0288-7.7643.0074-.5328.0897-1.062.2447-1.5722 2.9165-9.5571 5.8378-19.1124 8.7639-28.66586.2321-.767309.592-1.010558 1.3856-1.001615 3.6207.040541 7.2408.040541 10.8603 0 .8278 0 1.0798.248615 1.0798 1.073155-.0324 4.96695-.0162 9.93572-.0162 14.90442zm-8.5047-3.7561-.2592-.0339c-1.9021 6.5391-3.8024 13.0782-5.7477 19.7658h4.6788c1.3371 0 1.3407 0 1.3407-1.2985 0-5.8559 0-11.7124 0-17.5695z"/><path d="m11.2997 47.7174c-3.44252 0-6.88506-.0179-10.325809.0143-.734217 0-.9843552-.1967-.97355786-.9497.03959016-2.767.01079736-5.5339.01259686-8.3027 0-2.9709.99515-5.6073 2.8253-7.9235 2.32862-2.9476 4.70583-5.8577 7.05964-8.7874.76483-.9533 1.53863-1.8995 2.27643-2.8743.7747-.9987 1.1749-2.2346 1.1319-3.4949-.0378-1.7546 0-3.511-.0126-5.2674-.009-1.50245-.556-2.02114-2.0839-2.01399-1.52778.00716-2.06764.54016-2.07844 2.04259-.01619 2.1463-.03239 4.2926 0 6.4264.0144.7548-.17995 1.0732-1.00235 1.0517-2.33942-.0447-4.66804-.0393-7.00206 0-.748611.0072-.968156-.2718-.959158-.9944.032391-2.7974-.012597-5.5948.030592-8.39214.02206-.86105.136683-1.71729.341915-2.55412.671231-2.82241 2.468981-4.62353 5.310481-5.185155 3.51992-.690399 7.10642-.640318 10.62812-.107316 3.4912.53658 5.6236 2.504041 5.9242 5.990021.3437 4.00651.2195 8.07371.0126 12.09991-.1278 2.4682-1.6196 4.5055-3.1475 6.4067-2.6993 3.3769-5.44 6.7234-8.1537 10.0895-.8098 1.0052-1.52425 2.0551-1.65742 3.3984-.07198.7315.16376.9998.92682.9944 3.779-.0286 7.5437 0 11.3137-.025.7702 0 1.0546.1967 1.0366.9998-.0504 2.1124-.045 4.2265 0 6.3388.0162.7727-.2178 1.0338-1.0168 1.0267-3.4713-.0376-6.9444-.0161-10.4158-.0161z"/><path d="m69.0079 47.7108c-3.5883 0-7.1748-.0197-10.7613.0143-.7558 0-.9735-.2397-.9555-.9694.0467-1.7528.0305-3.5074 0-5.2603 0-.5777.1223-.8585.7882-.8567 7.2917.0155 14.5847.0155 21.8789 0 .6299 0 .8296.2182.8206.8299-.0306 1.7886-.0396 3.5665 0 5.3479.0162.7154-.2303.9158-.9286.9104-3.6099-.0286-7.227-.0143-10.8423-.0161z"/></g></svg>

<svg width="81" height="100" viewBox="0 0 81 100" fill="none" xmlns="http://www.w3.org/2000/svg">
<path d="M0.0258789 75.8469V53.4519C0.0258789 52.2839 0.0258789 52.2804 1.20639 52.2804C5.1654 52.2804 9.10462 52.2392 13.0528 52.3018C14.516 52.3084 15.9745 52.4679 17.4042 52.7776C21.0303 53.6129 23.2185 56.1527 23.6378 59.839C23.7562 60.8716 23.8163 61.91 23.8178 62.9494C23.8262 71.9317 23.8214 80.9135 23.8034 89.8946C23.8034 91.8156 23.4615 93.6882 22.4825 95.382C20.9655 98.0077 18.4875 99.1685 15.6226 99.283C10.7242 99.4779 5.81684 99.4117 0.914858 99.4904C0.0654691 99.503 0.0312776 99.0576 0.0312776 98.4173C0.0420749 90.892 0.0420749 83.3668 0.0312776 75.8416L0.0258789 75.8469ZM9.62469 75.8917H9.61389C9.61389 80.294 9.61389 84.6951 9.61389 89.0951C9.61389 91.744 9.6139 91.744 12.2646 91.3952C13.4128 91.2432 14.084 90.6619 14.21 89.5297C14.3141 88.4957 14.3597 87.4567 14.3467 86.4176C14.3539 78.7469 14.3539 71.0744 14.3467 63.4001C14.3467 61.0982 13.5171 60.2933 11.2029 60.27H10.9276C9.62829 60.27 9.62469 60.27 9.62469 61.522V75.8917Z" fill="white"/>
<path d="M28.5577 75.9273C28.5577 70.8119 28.5451 65.6947 28.5685 60.5775C28.5658 59.6563 28.652 58.7369 28.8259 57.832C29.4719 54.6573 31.4334 52.6451 34.6402 52.1979C38.5848 51.6453 42.587 51.5898 46.5173 52.2337C49.9526 52.7953 51.9501 55.1259 52.3658 58.5618C52.4629 59.3589 52.5134 60.1609 52.517 60.9639C52.5302 70.899 52.5302 80.8352 52.517 90.7727C52.513 91.8419 52.404 92.9082 52.1912 93.9564C51.5722 97.0095 49.7151 98.9913 46.6126 99.501C42.6528 100.154 38.6127 100.166 34.6492 99.535C30.7262 98.9108 28.6153 96.1564 28.5775 92.0802C28.5289 86.6965 28.5667 81.311 28.5667 75.9255L28.5577 75.9273ZM42.9542 75.9023H42.9632V62.7024C42.9632 60.1036 42.7094 59.8549 40.0839 59.8943C38.6118 59.9158 38.0522 60.4309 38.0486 61.8796C38.0342 71.2149 38.0294 80.5502 38.0342 89.8855C38.0342 91.3164 38.6064 91.853 40.0641 91.8977C40.334 91.8977 40.6039 91.8977 40.8721 91.8977C42.4917 91.8727 42.9524 91.4166 42.9542 89.814C42.9626 85.1779 42.9643 80.5407 42.9596 75.9023H42.9542Z" fill="white"/>
<path d="M57.2534 75.8863C57.2534 70.8299 57.2102 65.7718 57.2804 60.7154C57.2849 59.3222 57.4903 57.9368 57.8904 56.6016C58.7128 53.9903 60.7337 52.4038 63.3701 52.2195C67.1095 51.9566 70.9138 51.8475 74.6317 52.2338C78.4647 52.6327 80.5702 55.3979 80.7286 59.4562C80.8491 62.5165 80.7573 65.584 80.7807 68.6478C80.7807 69.1969 80.5612 69.374 80.0339 69.3633C77.4318 69.349 74.8278 69.3436 72.2257 69.3633C71.5724 69.3633 71.4087 69.0789 71.4141 68.4994C71.4321 66.4174 71.4321 64.3349 71.4141 62.2518C71.4141 61.4577 71.5328 60.4006 70.6097 60.1734C69.6199 59.9302 68.5042 60.0339 67.4802 60.2056C67.1761 60.2575 66.8558 61.0355 66.7946 61.5131C66.683 62.3913 66.7586 63.2928 66.7586 64.1853C66.7586 72.6346 66.7544 81.0834 66.746 89.5315C66.746 90.34 66.6507 91.2557 67.5648 91.6242C68.6733 92.0696 69.8862 92.1375 70.9246 91.474C71.2737 91.2504 71.4645 90.5582 71.4771 90.0753C71.5298 87.3971 71.5298 84.7196 71.4771 82.0427C71.4609 81.1788 71.7344 80.9176 72.5964 80.9355C75.0492 80.9856 77.502 80.9713 79.9565 80.9355C80.6764 80.9266 80.9535 81.1269 80.9445 81.8888C80.9049 85.1316 80.9895 88.3761 80.9013 91.617C80.8311 94.2069 80.2355 96.6412 77.9446 98.2975C76.4582 99.3706 74.7216 99.7766 72.9545 99.8106C69.9996 99.8679 67.0304 99.8661 64.0827 99.6586C60.0391 99.3742 57.3794 96.5393 57.3164 92.4738C57.23 86.9416 57.2948 81.4077 57.2948 75.8738L57.2534 75.8863Z" fill="white"/>
<path d="M48.3219 16.4747V31.1108C48.3219 32.4487 48.3219 32.4487 49.6248 32.4487C50.3122 32.4487 51.0014 32.4719 51.6888 32.4487C52.2287 32.4272 52.4464 32.6276 52.4447 33.1641C52.4303 35.3951 52.4303 37.6261 52.4447 39.8571C52.4447 40.4169 52.1747 40.5725 51.6654 40.5636C50.8574 40.5457 50.0458 40.5976 49.2432 40.5493C48.5234 40.5046 48.3075 40.8211 48.3165 41.4901C48.3417 43.2447 48.2967 45.0011 48.3363 46.7557C48.3525 47.4962 48.0897 47.7377 47.3501 47.7251C45.1367 47.6876 42.9214 47.6929 40.708 47.7251C40.0439 47.7341 39.8082 47.5051 39.819 46.8469C39.8496 45.1227 39.7938 43.3949 39.8442 41.6725C39.8694 40.8301 39.6102 40.535 38.7303 40.5439C34.8414 40.585 30.9508 40.5439 27.0619 40.5779C26.2288 40.5779 25.9822 40.3275 25.993 39.5047C26.038 36.9184 25.993 34.3285 26.0218 31.7404C26.0292 31.2076 26.1115 30.6784 26.2665 30.1682C29.183 20.6111 32.1043 11.0558 35.0304 1.50234C35.2625 0.735031 35.6224 0.491782 36.416 0.500725C40.0367 0.541266 43.6568 0.541266 47.2763 0.500725C48.1041 0.500725 48.3561 0.74934 48.3561 1.57388C48.3237 6.54083 48.3399 11.5096 48.3399 16.4783L48.3219 16.4747ZM39.8172 12.7186L39.558 12.6847C37.6559 19.2238 35.7556 25.7629 33.8103 32.4505H38.4891C39.8262 32.4505 39.8298 32.4505 39.8298 31.152C39.8298 25.2961 39.8298 19.4396 39.8298 13.5825L39.8172 12.7186Z" fill="white"/>
<path d="M11.2997 47.7174C7.85718 47.7174 4.41464 47.6995 0.973891 47.7317C0.239674 47.7317 -0.0104642 47.535 0.000333139 46.782C0.0399233 44.015 0.0111305 41.2481 0.01293 38.4793C0.01293 35.5084 1.00808 32.872 2.83823 30.5558C5.16685 27.6082 7.54406 24.6981 9.89787 21.7684C10.6627 20.8151 11.4365 19.8689 12.1743 18.8941C12.949 17.8954 13.3492 16.6595 13.3062 15.3992C13.2684 13.6446 13.3062 11.8882 13.2936 10.1318C13.2846 8.62935 12.7376 8.11066 11.2097 8.11781C9.68192 8.12497 9.14206 8.65797 9.13126 10.1604C9.11507 12.3067 9.09887 14.453 9.13126 16.5868C9.14566 17.3416 8.95131 17.66 8.12891 17.6385C5.78949 17.5938 3.46087 17.5992 1.12685 17.6385C0.378239 17.6457 0.158694 17.3667 0.167692 16.6441C0.200083 13.8467 0.155095 11.0493 0.198284 8.25196C0.220344 7.39091 0.334967 6.53467 0.540199 5.69784C1.21143 2.87543 3.00918 1.07431 5.85068 0.512685C9.3706 -0.177714 12.9571 -0.127633 16.4788 0.405369C19.97 0.941949 22.1024 2.90941 22.403 6.39539C22.7467 10.4019 22.6225 14.4691 22.4156 18.4953C22.2878 20.9635 20.796 23.0008 19.2681 24.902C16.5688 28.2789 13.8281 31.6254 11.1144 34.9915C10.3046 35.9967 9.59015 37.0466 9.45698 38.3899C9.385 39.1214 9.62074 39.3897 10.3838 39.3843C14.1628 39.3557 17.9275 39.3843 21.6975 39.3593C22.4677 39.3593 22.7521 39.556 22.7341 40.3591C22.6837 42.4715 22.6891 44.5856 22.7341 46.6979C22.7503 47.4706 22.5163 47.7317 21.7173 47.7246C18.246 47.687 14.7729 47.7085 11.3015 47.7085L11.2997 47.7174Z" fill="white"/>
<path d="M69.0079 47.7108C65.4196 47.7108 61.8331 47.6911 58.2466 47.7251C57.4908 47.7251 57.2731 47.4854 57.2911 46.7557C57.3378 45.0029 57.3216 43.2483 57.2911 41.4954C57.2911 40.9177 57.4134 40.6369 58.0793 40.6387C65.371 40.6542 72.664 40.6542 79.9582 40.6387C80.5881 40.6387 80.7878 40.8569 80.7788 41.4686C80.7482 43.2572 80.7392 45.0351 80.7788 46.8165C80.795 47.5319 80.5485 47.7323 79.8502 47.7269C76.2403 47.6983 72.6232 47.7126 69.0079 47.7108Z" fill="white"/>
</svg>
